X:40
T:Happy Cobler, The
M:2/4
L:1/8
B:Thompson's Compleat Collection of 200 Favourite Country Dances, vol. 2 (London, 1765)
Z:Transcribed and edited by Flynn Titford-Mock, 2007
Z:abc's:AK/Fiddler's Companion
K:A
f | eA A/A/A | cAcA | fB B/B/B | fBfB | eA A/A/A | cAcA | dfec A/A/A A :|
|: f | egaf | ecec | dfec | B/B/B Bf | egaf | ecec | dfec | A/A/A A :|

